X:1
T:Title
%%score 1 2
L:1/8
Q:1/4=95
M:6/8
K:C
V:1 treble nm="Grand Piano, Soprano"
V:2 bass nm="Choir Pad, San Dimas, 10.7.10.7 D"
V:1
 C/[CD]/ [CE]2 [CE][CE][CD] | C [EG]2 [EG] [EG]2 | [EG]/[EG]/ [FA]2 [FA] [Ac]2 | %3
w: By~George~Orlia~Webster,~1904 * * * * *|||
 [FA] [EG]2- [EG]2- [EG]/ z/ | [EG]/[EG]/ [Ec]2 [Fc] [Fc]2 | [EG]/[EG]/.[FA][Ac]- [Ac] [EG]2 | %6
w: |||
 C/[B,D]/[CE][EG]- [EG] [B,D]2 | [B,E] C2- C2- C/ z/ | [EG]/[EG]/ [Ec]2 [Fc] [Ec]2 | %9
w: |||
 [Ed]/[Ec]/ [Fc]2 [FB] [FB]2 | [FG]/[FG]/ [Fd]2 [Fd] [Fd]2 | [Fe] [Ec]2- [Ec]2- [Ec]/ z/ | %12
w: |||
 [Ec]/[Fd]/ [Ge]2 [Ge] [Ge]2 | [Gd]/[Gc]/ [Fd]2 [Fc] [FA]2 | [Ac]/[FA]/[EG][CE]- [CE] [B,D]2 | %15
w: |||
 [B,E] [G,C]2- [G,C]3- | [G,C]3 z3 |] %17
w: ||
V:2
 [C,E,]/[C,F,]/ [C,G,]2 [C,G,][C,G,][C,F,] | [C,E,] [C,C]2 [C,C] [C,C]2 | %2
 [C,C]/[C,C]/ [F,C]2 [F,C] [F,C]2 | [F,C] [C,C]2- [C,C]2- [C,C]/ z/ | %4
 [C,C]/[C,C]/ [C,G,]2 [C,A,] [C,G,]2 | [C,C]/[C,C]/[F,C][F,C]- [F,C]/ z/ [C,C]2 | %6
 [E,G,]/[D,G,]/[C,G,][C,G,]- [C,G,] [G,,F,]2 | [G,,G,] [C,E,]2- [C,E,]2- [C,E,]/ z/ | %8
 [C,G,]/[C,G,]/ [C,G,]2 [C,A,] [C,G,]2 | [C,G,]/[C,G,]/ [D,G,]2 [D,G,] [D,G,]2 | %10
 [G,B,]/[G,B,]/ [G,B,]2 [G,B,] [G,B,]2 | [G,B,] [C,C]2- [C,C]2- [C,C]/ z/ | %12
 [C,C]/[C,C]/ [C,C]2 [C,C] [C,C]2 | [D,B,]/[E,C]/ [F,A,]2 [F,A,] [F,C]2 | %14
 [F,C]/[F,C]/[G,C]G,- G,/ z/ [G,,F,]2 | [G,,G,] [C,E,]2- [C,E,]3- | [C,E,]3 z3 |] %17

